resources/svg/minor-read-time.svg

<svg xmlns="http://www.w3.org/2000/svg" viewBox="0 0 20 20" fill="currentColor"><path d="M7 4h9v-.5a1.5 1.5 0 0 0-1.5-1.5h-7.5a3 3 0 0 0-3 3v11.5a1.5 1.5 0 0 0 1.5 1.5h9a1.5 1.5 0 0 0 1.5-1.5v-9a1.5 1.5 0 0 0-1.5-1.5h-.5v5l-2-2-2 2v-5h-4v-1a1 1 0 0 1 1-1z"/></svg>

<svg xmlns="http://www.w3.org/2000/svg" viewBox="0 0 20 20" fill="currentColor"><path d="M7 4h9v-.5A1.5 1.5 0 0 0 14.5 2H7a3 3 0 0 0-3 3v11.5A1.5 1.5 0 0 0 5.5 18h9a1.5 1.5 0 0 0 1.5-1.5v-9A1.5 1.5 0 0 0 14.5 6H14v5l-2-2-2 2V6H6V5a1 1 0 0 1 1-1z"/></svg>
